theme/chrome/browser/symbolic-icons/extensions/lastpass-password-manager_alt.svg

<?xml version="1.0" encoding="UTF-8" standalone="no"?>
<!-- Created with Inkscape (http://www.inkscape.org/) -->

<svg
   xmlns:dc="http://purl.org/dc/elements/1.1/"
   xmlns:cc="http://creativecommons.org/ns#"
   xmlns:rdf="http://www.w3.org/1999/02/22-rdf-syntax-ns#"
   xmlns:svg="http://www.w3.org/2000/svg"
   xmlns="http://www.w3.org/2000/svg"
   xmlns:sodipodi="http://sodipodi.sourceforge.net/DTD/sodipodi-0.dtd"
   xmlns:inkscape="http://www.inkscape.org/namespaces/inkscape"
   width="16px"
   height="16px"
   id="svg3444"
   version="1.1"
   inkscape:version="0.48.3.1 r9886"
   sodipodi:docname="New document 12">
  <defs
     id="defs3446" />
  <sodipodi:namedview
     id="base"
     pagecolor="#ffffff"
     bordercolor="#666666"
     borderopacity="1.0"
     inkscape:pageopacity="0.0"
     inkscape:pageshadow="2"
     inkscape:zoom="22.197802"
     inkscape:cx="2.2336633"
     inkscape:cy="8"
     inkscape:current-layer="layer1"
     showgrid="true"
     inkscape:grid-bbox="true"
     inkscape:document-units="px"
     inkscape:window-width="1366"
     inkscape:window-height="712"
     inkscape:window-x="0"
     inkscape:window-y="27"
     inkscape:window-maximized="1">
    <inkscape:grid
       type="xygrid"
       id="grid3459" />
  </sodipodi:namedview>
  <metadata
     id="metadata3449">
    <rdf:RDF>
      <cc:Work
         rdf:about="">
        <dc:format>image/svg+xml</dc:format>
        <dc:type
           rdf:resource="http://purl.org/dc/dcmitype/StillImage" />
        <dc:title></dc:title>
      </cc:Work>
    </rdf:RDF>
  </metadata>
  <g
     id="layer1"
     inkscape:label="Layer 1"
     inkscape:groupmode="layer">
    <path
       style="font-size:medium;font-style:normal;font-variant:normal;font-weight:normal;font-stretch:normal;text-indent:0;text-align:start;text-decoration:none;line-height:normal;letter-spacing:normal;word-spacing:normal;text-transform:none;direction:ltr;block-progression:tb;writing-mode:lr-tb;text-anchor:start;baseline-shift:baseline;color:#000000;fill:#2e3436;fill-opacity:1;stroke:none;stroke-width:2;marker:none;visibility:visible;display:inline;overflow:visible;enable-background:accumulate;font-family:Sans;-inkscape-font-specification:Sans"
       d="m 5.555548,2 -2.006324,1.1464999 2.43625,3.8535 -4.983594,0 0,1.9985 4.983594,0 L 3.549224,12.8535 5.555548,14 7.991797,10.145 10.428046,14 12.43437,12.8535 9.99812,8.9984999 l 5,0 0,-1.9985 -5,0 2.43625,-3.8535 L 10.428046,2 7.991797,5.5590999 l -1.75454,-2.5632 z"
       id="path3029"
       inkscape:connector-curvature="0"
       sodipodi:nodetypes="cccccccccccccccccccc" />
  </g>
</svg>

<?xml version="1.0" encoding="UTF-8" standalone="no"?>
<svg xmlns:inkscape="http://www.inkscape.org/namespaces/inkscape" xmlns:rdf="http://www.w3.org/1999/02/22-rdf-syntax-ns#" xmlns="http://www.w3.org/2000/svg" sodipodi:docname="New document 12" height="16px" width="16px" version="1.1" xmlns:cc="http://creativecommons.org/ns#" xmlns:dc="http://purl.org/dc/elements/1.1/" inkscape:version="0.48.3.1 r9886" xmlns:sodipodi="http://sodipodi.sourceforge.net/DTD/sodipodi-0.dtd">
<sodipodi:namedview bordercolor="#666666" inkscape:pageshadow="2" inkscape:window-y="27" pagecolor="#ffffff" inkscape:window-height="712" inkscape:grid-bbox="true" inkscape:window-maximized="1" inkscape:zoom="22.197802" inkscape:window-x="0" showgrid="true" borderopacity="1.0" inkscape:current-layer="layer1" inkscape:cx="2.2336633" inkscape:cy="8" inkscape:window-width="1366" inkscape:pageopacity="0.0" inkscape:document-units="px">
<inkscape:grid type="xygrid"/>
</sodipodi:namedview>
<metadata>
<rdf:RDF>
<cc:Work rdf:about="">
<dc:format>image/svg+xml</dc:format>
<dc:type rdf:resource="http://purl.org/dc/dcmitype/StillImage"/>
<dc:title/>
</cc:Work>
</rdf:RDF>
</metadata>
<g inkscape:label="Layer 1" inkscape:groupmode="layer">
<path style="block-progression:tb;text-indent:0;color:#000000;text-transform:none" d="m5.5555 2-2.0063 1.1465 2.4362 3.8535h-4.9836v1.9985h4.9836l-2.4362 3.8555 2.0063 1.146 2.4363-3.855 2.4362 3.855 2.006-1.146-2.4359-3.8555h5v-1.9985h-5l2.4362-3.8535-2.006-1.1465-2.4362 3.5591-1.7545-2.5632z" sodipodi:nodetypes="cccccccccccccccccccc" inkscape:connector-curvature="0" fill="#2e3436"/>
</g>
</svg>
